src/earn/assets/icons/robot-happy.svg

<?xml version="1.0" encoding="UTF-8" standalone="no"?>
<svg width="86px" height="86px" viewBox="0 0 86 86" version="1.1" xmlns="http://www.w3.org/2000/svg" xmlns:xlink="http://www.w3.org/1999/xlink" xmlnsSketch="http://www.bohemiancoding.com/sketch/ns">
    <!-- Generator: Sketch 3.3.3 (12081) - http://www.bohemiancoding.com/sketch -->
    <title>robot</title>
    <desc>Created with Sketch.</desc>
    <defs></defs>
    <g id="Profile-Web" stroke="none" stroke-width="1" fill="none" fill-rule="evenodd" sketchType="MSPage">
        <g id="Profile-User-Main-Completely-Empty" sketchType="MSArtboardGroup" transform="translate(-645.000000, -636.000000)" stroke="#444444" stroke-width="2" stroke-linecap="round" stroke-linejoin="round">
            <g id="robot" sketchType="MSLayerGroup" transform="translate(646.000000, 637.000000)">
                <path d="M84,25.375 C84,20.7492083 80.2382,17 75.6,17 L8.4,17 C3.7604,17 0,20.7492083 0,25.375 L0,75.625 C0,80.2507917 3.7604,84 8.4,84 L75.6,84 C80.2382,84 84,80.2507917 84,75.625 L84,25.375 L84,25.375 Z" id="Stroke-387" fill="#F0F0F0" sketchType="MSShapeGroup"></path>
                <path d="M11,17 L11,7" id="Stroke-389" sketchType="MSShapeGroup"></path>
                <path d="M72,17 L72,7" id="Stroke-391" sketchType="MSShapeGroup"></path>
                <path d="M21,0 L1,0 L1,7 L21,7 L21,0 Z" id="Stroke-393" sketchType="MSShapeGroup"></path>
                <path d="M83,0 L63,0 L63,7 L83,7 L83,0 Z" id="Stroke-395" sketchType="MSShapeGroup"></path>
                <path d="M70,46 L14,46 L14,57.1111111 L14,71 L70,71 L70,46 L70,46 Z" id="Stroke-396" fill="#FFFFFF" sketchType="MSShapeGroup"></path>
                <circle id="Oval-5" fill="#FFFFFF" sketchType="MSShapeGroup" cx="31" cy="32" r="4"></circle>
                <circle id="Oval-5" fill="#FFFFFF" sketchType="MSShapeGroup" cx="53" cy="32" r="4"></circle>
                <path d="M25,71 L25,46" id="Stroke-399" sketchType="MSShapeGroup"></path>
                <path d="M36,71 L36,46" id="Stroke-400" sketchType="MSShapeGroup"></path>
                <path d="M47,71 L47,46" id="Stroke-401" sketchType="MSShapeGroup"></path>
                <path d="M58,71 L58,46" id="Stroke-402" sketchType="MSShapeGroup"></path>
                <path d="M70,58 L14,58" id="Stroke-540" sketchType="MSShapeGroup"></path>
            </g>
        </g>
    </g>
</svg>

<svg xmlns="http://www.w3.org/2000/svg" width="86" height="86"><g id="Profile-Web" fill="none" fill-rule="evenodd" stroke="none" stroke-width="1"><g id="Profile-User-Main-Completely-Empty" stroke="#444" stroke-linecap="round" stroke-linejoin="round" stroke-width="2" transform="translate(-645 -636)"><g id="robot" transform="translate(646 637)"><path id="Stroke-387" fill="#F0F0F0" d="M84 25.375C84 20.749 80.238 17 75.6 17H8.4C3.76 17 0 20.75 0 25.375v50.25C0 80.251 3.76 84 8.4 84h67.2c4.638 0 8.4-3.75 8.4-8.375v-50.25h0Z"/><path id="Stroke-389" d="M11 17V7"/><path id="Stroke-391" d="M72 17V7"/><path id="Stroke-393" d="M21 0H1v7h20V0Z"/><path id="Stroke-395" d="M83 0H63v7h20V0Z"/><path id="Stroke-396" fill="#FFF" d="M70 46H14v25h56V46h0Z"/><circle id="Oval-5" cx="31" cy="32" r="4" fill="#FFF"/><circle id="Oval-5" cx="53" cy="32" r="4" fill="#FFF"/><path id="Stroke-399" d="M25 71V46"/><path id="Stroke-400" d="M36 71V46"/><path id="Stroke-401" d="M47 71V46"/><path id="Stroke-402" d="M58 71V46"/><path id="Stroke-540" d="M70 58H14"/></g></g></g></svg>
